svg/fluentui-system-icons/ic_fluent_flip_horizontal_48_filled.svg

<svg width="48" height="48" viewBox="0 0 48 48" fill="none" xmlns="http://www.w3.org/2000/svg">
<path d="M43.7612 39.3122C43.4851 39.741 43.01 40.0001 42.5 40.0001H27.5C26.6716 40.0001 26 39.3286 26 38.5001L26 5.50015C26 4.79409 26.4924 4.18362 27.1824 4.03415C27.8725 3.88467 28.5734 4.23667 28.8655 4.87944L43.8655 37.8794C44.0766 38.3437 44.0373 38.8834 43.7612 39.3122ZM29 12.4251V37.0001H40.1705L29 12.4251ZM5 40.0003C4.65766 40.0003 4.3391 39.8252 4.15567 39.5362C3.97223 39.2471 3.94941 38.8843 4.09518 38.5745L20.0952 4.57455C20.2946 4.15088 20.7612 3.92228 21.2182 4.02443C21.6751 4.12657 22 4.53211 22 5.00034L22 39.0003C22 39.5526 21.5523 40.0003 21 40.0003H5Z" fill="#212121"/>
</svg>

<svg xmlns="http://www.w3.org/2000/svg" width="48" height="48"><path d="M43.761 39.312A1.5 1.5 0 0 1 42.5 40h-15a1.5 1.5 0 0 1-1.5-1.5v-33a1.5 1.5 0 0 1 2.866-.62l15 33a1.5 1.5 0 0 1-.105 1.432ZM29 12.425V37h11.17L29 12.425ZM5 40a1 1 0 0 1-.905-1.425l16-34A1 1 0 0 1 22 5v34a1 1 0 0 1-1 1H5Z"/></svg>
